img/vector/bag.svg

<svg width="48" height="41" viewBox="0 0 48 41" fill="none" xmlns="http://www.w3.org/2000/svg">
<path d="M42.5886 8.52529H37.519V3.45567C37.519 2.55931 37.1629 1.69966 36.5291 1.06583C35.8953 0.432007 35.0356 0.0759277 34.1393 0.0759277H13.8608C12.9644 0.0759277 12.1048 0.432007 11.4709 1.06583C10.8371 1.69966 10.481 2.55931 10.481 3.45567V8.52529H5.41142C4.06687 8.52529 2.77739 9.05941 1.82665 10.0102C0.875916 10.9609 0.341797 12.2504 0.341797 13.5949V37.2531C0.341797 38.1495 0.697876 39.0092 1.3317 39.643C1.96553 40.2768 2.82518 40.6329 3.72154 40.6329H44.2785C45.1749 40.6329 46.0345 40.2768 46.6683 39.643C47.3022 39.0092 47.6582 38.1495 47.6582 37.2531V13.5949C47.6582 12.2504 47.1241 10.9609 46.1734 10.0102C45.2227 9.05941 43.9332 8.52529 42.5886 8.52529ZM13.8608 3.45567H34.1393V8.52529H13.8608V3.45567ZM44.2785 37.2531H3.72154V22.0443H17.2405V30.4936H30.7595V22.0443H44.2785V37.2531ZM20.6203 22.0443H27.3798V27.1139H20.6203V22.0443ZM3.72154 18.6645V13.5949C3.72154 13.1467 3.89958 12.7169 4.2165 12.4C4.53341 12.0831 4.96323 11.905 5.41142 11.905H42.5886C43.0368 11.905 43.4666 12.0831 43.7836 12.4C44.1005 12.7169 44.2785 13.1467 44.2785 13.5949V18.6645H3.72154Z" fill="#00A0C1"/>
</svg>

<svg width="48" height="41" fill="none" xmlns="http://www.w3.org/2000/svg"><path d="M42.589 8.525h-5.07v-5.07a3.38 3.38 0 0 0-3.38-3.38H13.861a3.38 3.38 0 0 0-3.38 3.38v5.07h-5.07a5.07 5.07 0 0 0-5.07 5.07v23.658a3.38 3.38 0 0 0 3.38 3.38H44.28a3.38 3.38 0 0 0 3.38-3.38V13.595a5.07 5.07 0 0 0-5.07-5.07ZM13.86 3.455h20.278v5.07H13.861v-5.07Zm30.418 33.798H3.721V22.044H17.24v8.45h13.518v-8.45h13.52v15.21ZM20.62 22.044h6.76v5.07h-6.76v-5.07Zm-16.898-3.38v-5.07a1.69 1.69 0 0 1 1.69-1.689h37.177a1.69 1.69 0 0 1 1.69 1.69v5.07H3.721Z" fill="#00A0C1"/></svg>
